src/lib/packages/icons/src/assets/filled/flashlight.svg

<svg width="24" height="24" viewBox="0 0 24 24" fill="none" xmlns="http://www.w3.org/2000/svg">
<path d="M7.75 3H16.25C16.663 3 17 3.337 17 3.75V5.94995C17 6.11595 16.866 6.25 16.7 6.25H7.30005C7.13405 6.25 7 6.11595 7 5.94995V3.75C7 3.337 7.337 3 7.75 3ZM7.30688 8.1311C7.25288 7.9411 7.40503 7.75 7.60303 7.75H16.397C16.595 7.75 16.7481 7.94208 16.6931 8.13208C16.4681 8.91508 16.1021 9.64299 15.6121 10.292C15.2181 10.814 15 11.4471 15 12.1011V19.501C15 20.329 14.328 21.001 13.5 21.001H10.5C9.672 21.001 9 20.329 9 19.501V12.1011C9 11.4551 8.78602 10.828 8.39502 10.314C7.89702 9.65897 7.53188 8.9231 7.30688 8.1311ZM12 12.25C11.586 12.25 11.25 12.586 11.25 13V15C11.25 15.414 11.586 15.75 12 15.75C12.414 15.75 12.75 15.414 12.75 15V13C12.75 12.586 12.414 12.25 12 12.25Z" fill="currentColor"/>
</svg>

<svg xmlns="http://www.w3.org/2000/svg" width="24" height="24" fill="none"><path fill="currentColor" d="M7.75 3h8.5c.413 0 .75.337.75.75v2.2a.3.3 0 0 1-.3.3H7.3a.3.3 0 0 1-.3-.3v-2.2c0-.413.337-.75.75-.75Zm-.443 5.131a.305.305 0 0 1 .296-.381h8.794c.198 0 .351.192.296.382a6.604 6.604 0 0 1-1.08 2.16 3.004 3.004 0 0 0-.613 1.81V19.5a1.5 1.5 0 0 1-1.5 1.5h-3A1.5 1.5 0 0 1 9 19.5v-7.4c0-.646-.214-1.273-.605-1.787A6.55 6.55 0 0 1 7.307 8.13ZM12 12.25a.75.75 0 0 0-.75.75v2a.75.75 0 0 0 1.5 0v-2a.75.75 0 0 0-.75-.75Z"/></svg>
